svg/u1f3be.svg

<svg viewBox="0 0 128 128" xmlns="http://www.w3.org/2000/svg">
  <path d="M32.26,94.85c0,0,5.66-8.06,5.87-8.38s8.69-19.38,8.69-19.38l3.77,1.47l-0.7,1.58 c0,0-0.93,0.66-1.77,2.55s-5.57,14.46-5.57,14.46l19.24-6.23l23.04-3.35c0,0,11.42-6.49,13.51-7.75 c2.09-1.26,14.03-14.35,14.03-14.35l6.18-12.36l1.36-13.93l-1.91-12.51c0,0,7.99,7.35,5.43,23.28 c-3.24,20.14-18.01,36.59-41.42,42.48c-10.95,2.76-24.08,3.65-35.38,8.3c-5.86,2.41-12.87,10.19-12.87,10.19L32.26,94.85z" fill="#024AB1"/>
  <path d="M51.2,40.7l-2.13,14.68L47.4,66.05l11.55,4.71c0,0-8.13-13.63-3.36-26.75 c5.97-16.41,22.18-30.55,35.47-31.53c9.19-0.68,11.67,1.38,16.23,3.58c5.91,2.84,9.31,9.6,9.31,9.6s-1.34-8.91-1.67-9.32 s-14.77-8.69-14.77-8.69S84.83,8.05,84.42,8.3s-13.37,6.32-13.62,6.97c-0.25,0.66-12.39,13.53-13.7,15.42 C55.79,32.58,51.2,40.7,51.2,40.7z" fill="#024AB1"/>
  <path d="M105.68,64.52c-0.38,0-0.76-0.14-1.05-0.43L66.02,26.45c-0.59-0.58-0.61-1.53-0.03-2.12 c0.58-0.59,1.53-0.6,2.12-0.03l38.61,37.65c0.59,0.58,0.61,1.53,0.03,2.12C106.46,64.37,106.07,64.52,105.68,64.52z" fill="#B7CDD2"/>
  <path d="M111.78,57.36c-0.38,0-0.77-0.15-1.06-0.44L73.17,19.48c-0.59-0.58-0.59-1.53,0-2.12 s1.53-0.59,2.12,0l37.54,37.44c0.59,0.58,0.59,1.53,0,2.12C112.55,57.21,112.16,57.36,111.78,57.36z" fill="#B7CDD2"/>
  <path d="M115.84,48.48c-0.39,0-0.78-0.15-1.07-0.45L82.25,14.65c-0.58-0.59-0.57-1.54,0.03-2.12 c0.59-0.58,1.54-0.57,2.12,0.03l32.52,33.37c0.58,0.59,0.57,1.54-0.03,2.12C116.6,48.34,116.22,48.48,115.84,48.48z" fill="#B7CDD2"/>
  <path d="M118.09,36.93c-0.38,0-0.76-0.14-1.05-0.43L93.18,12.96c-0.59-0.58-0.6-1.53-0.01-2.12 c0.58-0.59,1.53-0.6,2.12-0.01l23.85,23.53c0.59,0.58,0.6,1.53,0.01,2.12C118.86,36.78,118.48,36.93,118.09,36.93z" fill="#B7CDD2"/>
  <path d="M98.45,71.4c-0.38,0-0.76-0.14-1.05-0.43L59.81,34.14c-0.59-0.58-0.6-1.53-0.02-2.12 c0.58-0.59,1.53-0.6,2.12-0.02L99.5,68.83c0.59,0.58,0.6,1.53,0.02,2.12C99.23,71.25,98.84,71.4,98.45,71.4z" fill="#B7CDD2"/>
  <path d="M88.46,76.5c-0.39,0-0.78-0.15-1.07-0.45l-32.2-32.84c-0.58-0.59-0.57-1.54,0.02-2.12 c0.59-0.58,1.54-0.57,2.12,0.02l32.2,32.84c0.58,0.59,0.57,1.54-0.02,2.12C89.22,76.36,88.84,76.5,88.46,76.5z" fill="#B7CDD2"/>
  <path d="M78.19,78.86c-0.38,0-0.75-0.14-1.05-0.43L52.65,54.58c-0.59-0.58-0.61-1.53-0.03-2.12 c0.58-0.59,1.53-0.61,2.12-0.03l24.5,23.85c0.59,0.58,0.61,1.53,0.03,2.12C78.97,78.71,78.58,78.86,78.19,78.86z" fill="#B7CDD2"/>
  <path d="M56.58,67.09c-0.39,0-0.78-0.15-1.07-0.45c-0.58-0.59-0.57-1.54,0.02-2.12l50.17-49.31 c0.59-0.58,1.54-0.57,2.12,0.02c0.58,0.59,0.57,1.54-0.02,2.12L57.63,66.66C57.34,66.95,56.96,67.09,56.58,67.09z" fill="#B7CDD2"/>
  <path d="M54.02,58.21c-0.38,0-0.75-0.14-1.04-0.42c-0.6-0.58-0.61-1.53-0.03-2.12 c16.57-17.11,41.58-43.03,42.94-44.72c0.41-0.62,1.23-0.85,1.92-0.51c0.74,0.37,1.04,1.27,0.67,2.01 c-0.13,0.26-0.53,1.06-43.37,45.3C54.8,58.06,54.41,58.21,54.02,58.21z" fill="#B7CDD2"/>
  <path d="M56.26,43.56c-0.37,0-0.74-0.14-1.03-0.41c-0.6-0.57-0.63-1.52-0.06-2.12l27-28.5 c0.57-0.6,1.61-0.57,2.21,0c0.6,0.57,0.6,1.4,0.03,2L57.35,43.09C57.06,43.4,56.66,43.56,56.26,43.56z" fill="#B7CDD2"/>
  <path d="M61.5,75.65c-0.38,0-0.76-0.14-1.05-0.43c-0.59-0.58-0.6-1.53-0.02-2.12l51.43-52.76 c0.58-0.59,1.66-0.76,2.25-0.18c0.59,0.58,0.47,1.69-0.11,2.28L62.58,75.2C62.28,75.5,61.89,75.65,61.5,75.65z" fill="#B7CDD2"/>
  <path d="M71.34,79.39c-0.38,0-0.76-0.14-1.05-0.43c-0.59-0.58-0.6-1.53-0.01-2.12l47.28-47.92 c0.58-0.59,1.53-0.59,2.12-0.01c0.59,0.58,0.6,1.53,0.01,2.12L72.41,78.95C72.12,79.24,71.73,79.39,71.34,79.39z" fill="#B7CDD2"/>
  <path d="M85.15,77.88c-0.35,0-0.7-0.12-0.98-0.36c-0.62-0.54-0.7-1.46-0.18-2.08 c0.54-0.64,24.77-24.88,32.18-32.3c0.59-0.59,1.54-0.59,2.12,0c0.59,0.59,0.59,1.54,0,2.12c-8.64,8.64-31.23,31.25-32.02,32.12 C85.97,77.71,85.56,77.88,85.15,77.88z" fill="#B7CDD2"/>
  <path d="M40.09,86.67c0,0,5.86-16.62,7.45-17.15c0.75-0.25,1.68,1.75,4.6,4.6c3.18,3.1,5.02,4.18,4.77,5.44 C56.51,81.56,40.09,86.67,40.09,86.67z M117.57,33.72c-0.69,16.58-13.25,34.16-29.97,40.59c-10.32,3.97-22.33,3.08-29.38-4.37 c-6.81-7.19-7.63-14.55-5.86-23.03c3.08-14.69,16.57-30.97,28.98-35.33s20.8-2.3,28.31,3.3C115.5,19.26,117.84,27.27,117.57,33.72z M117.7,16.23c-3.97-4.74-12.64-13.46-29.4-11.01C73.19,7.43,60.68,19.48,53.34,32.35c-5.84,10.26-6.42,18.34-8.16,26.72 c-1.69,8.13-7.94,23.68-9.25,26.28c-3.17,6.27-6.31,7.31-6.73,8.22l2.42,7.82c0,0,2.14-3.83,7.22-8.9 c5.07-5.07,16.49-7.53,21.35-8.52c5.56-1.14,14.39-1.07,28.73-6.26c16.53-5.98,32.15-25.28,32.81-41.83 C122.11,26.12,121.81,21.14,117.7,16.23z" fill="#1F87FF"/>
  <path d="M30.34,91.48c-1.49,0.25-16.69,16.65-16.69,16.65s-5.73,2.82-6.8,3.56s-1.18,2.67-0.11,3.85 s7.49,7.49,8.34,8.24s3.18,0.7,3.74-0.96c0.48-1.41,2.72-5.38,2.72-5.38s16.65-17.24,16.65-18.1S30.98,91.38,30.34,91.48z" fill="#5F6369"/>
  <path d="M11.77,113.08c0.52,2.76,4.24,2.79,6.4,1.24c1.66-1.2,0.85-2.77,2.01-4.01 c1.38-1.48,2.65-0.64,3.93-2.13c1.28-1.49,0.85-2.48,1.66-3.41c1.15-1.32,2.35-0.47,3.54-1.88c1.2-1.41,0.51-2.56,1.41-3.46 s2.99-0.47,2.48-2.77c-0.51-2.3-3.63-2.01-5.04-0.9c-1.11,0.88-1.11,2.39-2.26,3.41c-1.02,0.9-2.18,0.6-3.54,1.84 c-1.37,1.24-0.98,2.82-1.92,3.84c-0.94,1.02-2.22,0.26-3.67,1.88c-1.51,1.69-0.73,2.6-2.18,3.67 C13.61,111.11,11.34,110.82,11.77,113.08z" fill="#858686"/>
  <path d="M12.53,9.35L4.12,22.87c0,0,0,10,9.09,15.11c9.35,5.26,21.84,1.55,26.36-7.84 c4.43-9.2,0.23-20-4.32-23.52C30.1,2.63,12.53,9.35,12.53,9.35z" fill="#B6D401"/>
  <path d="M15.12,3.36C8.33,6.6,4.37,12.68,3.8,18.81c-0.19,2.07,0,3.88,0,3.88s2.8,9.69,15.13,10.5 c13.26,0.88,19.43-7.38,19.82-16.44c0.31-7.19-3.69-10.5-3.69-10.5s-1.81-2.44-5.82-3.69C27.53,2.01,21.56,0.3,15.12,3.36z" fill="#D5F100"/>
  <path d="M7.55,18.93c4.39,5.27,12.14,9.85,13.51,14.94c1.19,4.44-0.69,6.5-0.69,6.5s0.56,0.31,1.19,0.38 c0.63,0.06,1.31-0.25,1.31-0.25s1.38-1.69,0.88-6.5c-0.5-4.81-5.13-8.63-8.25-11.07c-2.59-2.02-5.68-4.48-6.82-6.44 C6.87,13.37,6.93,9.8,6.93,9.8s-0.88,0.31-1.31,1.56C5.2,12.54,4.74,15.56,7.55,18.93z" fill="#FFFFFF"/>
  <path d="M26.44,1.67c0,0,0.56,1.25,2.94,4c2.23,2.58,5.53,6.21,7.82,10.38c1.75,3.19,3.69,10.69,3.69,10.69 s0.75-2.63,0.75-4.38c0-0.94-1.56-5.19-2.94-7.82c-1.62-3.1-4.75-6.75-6.07-8.44c-0.81-1.05-3.25-3.94-3.25-3.94 S26.56,1.36,26.44,1.67z" fill="#FFFFFF"/>
</svg>

<svg viewBox="0 0 128 128" xmlns="http://www.w3.org/2000/svg">
  <defs/>
  <path d="M32.26,94.85 C32.26,94.85 37.92,86.79 38.13,86.47 C38.34,86.15 46.82,67.09 46.82,67.09 L50.59,68.56 L49.89,70.14 C49.89,70.14 48.96,70.8 48.12,72.69 C47.28,74.58 42.55,87.15 42.55,87.15 L61.79,80.92 L84.83,77.57 C84.83,77.57 96.25,71.08 98.34,69.82 C100.43,68.56 112.37,55.47 112.37,55.47 L118.55,43.11 L119.91,29.18 L118,16.67 C118,16.67 125.99,24.02 123.43,39.95 C120.19,60.09 105.42,76.54 82.01,82.43 C71.06,85.19 57.93,86.08 46.63,90.73 C40.77,93.14 33.76,100.92 33.76,100.92 L32.26,94.85 Z" fill="#024AB1"/>
  <path d="M51.2,40.7 L49.07,55.38 L47.4,66.05 L58.95,70.76 C58.95,70.76 50.82,57.13 55.59,44.01 C61.56,27.6 77.77,13.46 91.06,12.48 C100.25,11.8 102.73,13.86 107.29,16.06 C113.2,18.9 116.6,25.66 116.6,25.66 C116.6,25.66 115.26,16.75 114.93,16.34 C114.6,15.93 100.16,7.65 100.16,7.65 C100.16,7.65 84.83,8.05 84.42,8.3 C84.01,8.55 71.05,14.62 70.8,15.27 C70.55,15.93 58.41,28.8 57.1,30.69 C55.79,32.58 51.2,40.7 51.2,40.7 Z" fill="#024AB1"/>
  <path d="M105.68,64.52 C105.3,64.52 104.92,64.38 104.63,64.09 L66.02,26.45 C65.43,25.87 65.41,24.92 65.99,24.33 C66.57,23.74 67.52,23.73 68.11,24.3 L106.72,61.95 C107.31,62.53 107.33,63.48 106.75,64.07 C106.46,64.37 106.07,64.52 105.68,64.52 Z" fill="#B7CDD2"/>
  <path d="M111.78,57.36 C111.4,57.36 111.01,57.21 110.72,56.92 L73.17,19.48 C72.58,18.9 72.58,17.95 73.17,17.36 C73.76,16.77 74.7,16.77 75.29,17.36 L112.83,54.8 C113.42,55.38 113.42,56.33 112.83,56.92 C112.55,57.21 112.16,57.36 111.78,57.36 Z" fill="#B7CDD2"/>
  <path d="M115.84,48.48 C115.45,48.48 115.06,48.33 114.77,48.03 L82.25,14.65 C81.67,14.06 81.68,13.11 82.28,12.53 C82.87,11.95 83.82,11.96 84.4,12.56 L116.92,45.93 C117.5,46.52 117.49,47.47 116.89,48.05 C116.6,48.34 116.22,48.48 115.84,48.48 Z" fill="#B7CDD2"/>
  <path d="M118.09,36.93 C117.71,36.93 117.33,36.79 117.04,36.5 L93.18,12.96 C92.59,12.38 92.58,11.43 93.17,10.84 C93.75,10.25 94.7,10.24 95.29,10.83 L119.14,34.36 C119.73,34.94 119.74,35.89 119.15,36.48 C118.86,36.78 118.48,36.93 118.09,36.93 Z" fill="#B7CDD2"/>
  <path d="M98.45,71.4 C98.07,71.4 97.69,71.26 97.4,70.97 L59.81,34.14 C59.22,33.56 59.21,32.61 59.79,32.02 C60.37,31.43 61.32,31.42 61.91,32 L99.5,68.83 C100.09,69.41 100.1,70.36 99.52,70.95 C99.23,71.25 98.84,71.4 98.45,71.4 Z" fill="#B7CDD2"/>
  <path d="M88.46,76.5 C88.07,76.5 87.68,76.35 87.39,76.05 L55.19,43.21 C54.61,42.62 54.62,41.67 55.21,41.09 C55.8,40.51 56.75,40.52 57.33,41.11 L89.53,73.95 C90.11,74.54 90.1,75.49 89.51,76.07 C89.22,76.36 88.84,76.5 88.46,76.5 Z" fill="#B7CDD2"/>
  <path d="M78.19,78.86 C77.81,78.86 77.44,78.72 77.14,78.43 L52.65,54.58 C52.06,54 52.04,53.05 52.62,52.46 C53.2,51.87 54.15,51.85 54.74,52.43 L79.24,76.28 C79.83,76.86 79.85,77.81 79.27,78.4 C78.97,78.71 78.58,78.86 78.19,78.86 Z" fill="#B7CDD2"/>
  <path d="M56.58,67.09 C56.19,67.09 55.8,66.94 55.51,66.64 C54.93,66.05 54.94,65.1 55.53,64.52 L105.7,15.21 C106.29,14.63 107.24,14.64 107.82,15.23 C108.4,15.82 108.39,16.77 107.8,17.35 L57.63,66.66 C57.34,66.95 56.96,67.09 56.58,67.09 Z" fill="#B7CDD2"/>
  <path d="M54.02,58.21 C53.64,58.21 53.27,58.07 52.98,57.79 C52.38,57.21 52.37,56.26 52.95,55.67 C69.52,38.56 94.53,12.64 95.89,10.95 C96.3,10.33 97.12,10.1 97.81,10.44 C98.55,10.81 98.85,11.71 98.48,12.45 C98.35,12.71 97.95,13.51 55.11,57.75 C54.8,58.06 54.41,58.21 54.02,58.21 Z" fill="#B7CDD2"/>
  <path d="M56.26,43.56 C55.89,43.56 55.52,43.42 55.23,43.15 C54.63,42.58 54.6,41.63 55.17,41.03 L82.17,12.53 C82.74,11.93 83.78,11.96 84.38,12.53 C84.98,13.1 84.98,13.93 84.41,14.53 L57.35,43.09 C57.06,43.4 56.66,43.56 56.26,43.56 Z" fill="#B7CDD2"/>
  <path d="M61.5,75.65 C61.12,75.65 60.74,75.51 60.45,75.22 C59.86,74.64 59.85,73.69 60.43,73.1 L111.86,20.34 C112.44,19.75 113.52,19.58 114.11,20.16 C114.7,20.74 114.58,21.85 114,22.44 L62.58,75.2 C62.28,75.5 61.89,75.65 61.5,75.65 Z" fill="#B7CDD2"/>
  <path d="M71.34,79.39 C70.96,79.39 70.58,79.25 70.29,78.96 C69.7,78.38 69.69,77.43 70.28,76.84 L117.56,28.92 C118.14,28.33 119.09,28.33 119.68,28.91 C120.27,29.49 120.28,30.44 119.69,31.03 L72.41,78.95 C72.12,79.24 71.73,79.39 71.34,79.39 Z" fill="#B7CDD2"/>
  <path d="M85.15,77.88 C84.8,77.88 84.45,77.76 84.17,77.52 C83.55,76.98 83.47,76.06 83.99,75.44 C84.53,74.8 108.76,50.56 116.17,43.14 C116.76,42.55 117.71,42.55 118.29,43.14 C118.88,43.73 118.88,44.68 118.29,45.26 C109.65,53.9 87.06,76.51 86.27,77.38 C85.97,77.71 85.56,77.88 85.15,77.88 Z" fill="#B7CDD2"/>
  <path d="M40.09,86.67 C40.09,86.67 45.95,70.05 47.54,69.52 C48.29,69.27 49.22,71.27 52.14,74.12 C55.32,77.22 57.16,78.3 56.91,79.56 C56.51,81.56 40.09,86.67 40.09,86.67 Z M117.57,33.72 C116.88,50.3 104.32,67.88 87.6,74.31 C77.28,78.28 65.27,77.39 58.22,69.94 C51.41,62.75 50.59,55.39 52.36,46.91 C55.44,32.22 68.93,15.94 81.34,11.58 C93.75,7.22 102.14,9.28 109.65,14.88 C115.5,19.26 117.84,27.27 117.57,33.72 Z M117.7,16.23 C113.73,11.49 105.06,2.77 88.3,5.22 C73.19,7.43 60.68,19.48 53.34,32.35 C47.5,42.61 46.92,50.69 45.18,59.07 C43.49,67.2 37.24,82.75 35.93,85.35 C32.76,91.62 29.62,92.66 29.2,93.57 L31.62,101.39 C31.62,101.39 33.76,97.56 38.84,92.49 C43.91,87.42 55.33,84.96 60.19,83.97 C65.75,82.83 74.58,82.9 88.92,77.71 C105.45,71.73 121.07,52.43 121.73,35.88 C122.11,26.12 121.81,21.14 117.7,16.23 Z" fill="#1F87FF"/>
  <path d="M30.34,91.48 C28.85,91.73 13.65,108.13 13.65,108.13 C13.65,108.13 7.92,110.95 6.85,111.69 C5.78,112.43 5.67,114.36 6.74,115.54 C7.81,116.72 14.23,123.03 15.08,123.78 C15.93,124.53 18.26,124.48 18.82,122.82 C19.3,121.41 21.54,117.44 21.54,117.44 C21.54,117.44 38.19,100.2 38.19,99.34 C38.19,98.48 30.98,91.38 30.34,91.48 Z" fill="#5F6369"/>
  <path d="M11.77,113.08 C12.29,115.84 16.01,115.87 18.17,114.32 C19.83,113.12 19.02,111.55 20.18,110.31 C21.56,108.83 22.83,109.67 24.11,108.18 C25.39,106.69 24.96,105.7 25.77,104.77 C26.92,103.45 28.12,104.3 29.31,102.89 C30.51,101.48 29.82,100.33 30.72,99.43 C31.62,98.53 33.71,98.96 33.2,96.66 C32.69,94.36 29.57,94.65 28.16,95.76 C27.05,96.64 27.05,98.15 25.9,99.17 C24.88,100.07 23.72,99.77 22.36,101.01 C20.99,102.25 21.38,103.83 20.44,104.85 C19.5,105.87 18.22,105.11 16.77,106.73 C15.26,108.42 16.04,109.33 14.59,110.4 C13.61,111.11 11.34,110.82 11.77,113.08 Z" fill="#858686"/>
  <path d="M12.53,9.35 L4.12,22.87 C4.12,22.87 4.12,32.87 13.21,37.98 C22.56,43.24 35.05,39.53 39.57,30.14 C44,20.94 39.8,10.14 35.25,6.62 C30.1,2.63 12.53,9.35 12.53,9.35 Z" fill="#B6D401"/>
  <path d="M15.12,3.36 C8.33,6.6 4.37,12.68 3.8,18.81 C3.61,20.88 3.8,22.69 3.8,22.69 C3.8,22.69 6.6,32.38 18.93,33.19 C32.19,34.07 38.36,25.81 38.75,16.75 C39.06,9.56 35.06,6.25 35.06,6.25 C35.06,6.25 33.25,3.81 29.24,2.56 C27.53,2.01 21.56,0.3 15.12,3.36 Z" fill="#D5F100"/>
  <path d="M7.55,18.93 C11.94,24.2 19.69,28.78 21.06,33.87 C22.25,38.31 20.37,40.37 20.37,40.37 C20.37,40.37 20.93,40.68 21.56,40.75 C22.19,40.81 22.87,40.5 22.87,40.5 C22.87,40.5 24.25,38.81 23.75,34 C23.25,29.19 18.62,25.37 15.5,22.93 C12.91,20.91 9.82,18.45 8.68,16.49 C6.87,13.37 6.93,9.8 6.93,9.8 C6.93,9.8 6.05,10.11 5.62,11.36 C5.2,12.54 4.74,15.56 7.55,18.93 Z" fill="#FFFFFF"/>
  <path d="M26.44,1.67 C26.44,1.67 27,2.92 29.38,5.67 C31.61,8.25 34.91,11.88 37.2,16.05 C38.95,19.24 40.89,26.74 40.89,26.74 C40.89,26.74 41.64,24.11 41.64,22.36 C41.64,21.42 40.08,17.17 38.7,14.54 C37.08,11.44 33.95,7.79 32.63,6.1 C31.82,5.05 29.38,2.16 29.38,2.16 C29.38,2.16 26.56,1.36 26.44,1.67 Z" fill="#FFFFFF"/>
</svg>
